X: 18658
T: I'll Buy Boots For Maggie
R: polka
M: 2/4
K: Aminor
|:A>B cd|eg ga|eg/e/ dB|AB GE|
A>B cd|eg ga|eg/e/ dB|1 BA e/d/c/B/:|2 BA A2||
|:ea ab|c'b ag|ea ab|c'b ag|
ea ab|c'b ag|eg/e/ dB|1 BA A2:|2 BA e/d/c/B/||

